build/category/CompareOutline.svg

<svg xmlns="http://www.w3.org/2000/svg" fill="none" viewBox="0 0 24 24" focusable="false"><path d="M0 0H24V24H0z"/><path fill="#74767B" fill-rule="evenodd" d="M12 18.3264C11.0907 18.7583 10.0736 19 9 19C5.13401 19 2 15.866 2 12C2 8.13401 5.13401 5 9 5C10.0736 5 11.0907 5.24169 12 5.67363C12.9093 5.24169 13.9264 5 15 5C18.866 5 22 8.13401 22 12C22 15.866 18.866 19 15 19C13.9264 19 12.9093 18.7583 12 18.3264ZM10.6253 17.4649C10.1102 17.6179 9.56471 17.7 9 17.7C5.85198 17.7 3.3 15.148 3.3 12C3.3 8.85198 5.85198 6.3 9 6.3C9.56471 6.3 10.1102 6.38212 10.6253 6.53507C9.02482 7.81792 8 9.78928 8 12C8 14.2107 9.02482 16.1821 10.6253 17.4649ZM12 16.8476C10.3793 15.8425 9.3 14.0473 9.3 12C9.3 9.95273 10.3793 8.15754 12 7.15243C13.6207 8.15754 14.7 9.95273 14.7 12C14.7 14.0473 13.6207 15.8425 12 16.8476ZM13.3747 6.53507C13.8898 6.38212 14.4353 6.3 15 6.3C18.148 6.3 20.7 8.85198 20.7 12C20.7 15.148 18.148 17.7 15 17.7C14.4353 17.7 13.8898 17.6179 13.3747 17.4649C14.9752 16.1821 16 14.2107 16 12C16 9.78928 14.9752 7.81792 13.3747 6.53507Z"/></svg>

<svg xmlns="http://www.w3.org/2000/svg" fill="none" viewBox="0 0 24 24" focusable="false"><path fill="#74767B" fill-rule="evenodd" d="M12 18.32c-.91.43-1.93.68-3 .68-3.87 0-7-3.14-7-7 0-3.87 3.13-7 7-7 1.07 0 2.09.24 3 .67.9-.43 1.92-.67 3-.67 3.86 0 7 3.13 7 7 0 3.86-3.14 7-7 7-1.08 0-2.1-.25-3-.68m-1.38-.86c-.51.15-1.06.24-1.62.24A5.706 5.706 0 0 1 9 6.29c.56 0 1.11.09 1.62.24A6.98 6.98 0 0 0 8 12a6.97 6.97 0 0 0 2.62 5.46m1.38-.62c-1.63-1-2.7-2.8-2.7-4.84A5.67 5.67 0 0 1 12 7.15c1.62 1 2.7 2.8 2.7 4.85 0 2.04-1.08 3.84-2.7 4.84m1.37-10.31c.51-.15 1.06-.24 1.63-.24 3.14 0 5.7 2.56 5.7 5.71 0 3.14-2.56 5.7-5.7 5.7-.57 0-1.12-.09-1.63-.24A6.98 6.98 0 0 0 16 12c0-2.22-1.03-4.19-2.63-5.47"/></svg>
